symbols/web/meeting_room/materialsymbolsoutlined/meeting_room_wght300grad200_24px.svg

<svg xmlns="http://www.w3.org/2000/svg" height="24" width="24"><path d="M2.65 21.25V19.1H4.7V2.7h10.4v1h4.2v15.4h2.05v2.15h-4.2V5.85H15.1v15.4Zm4.2-16.4V19.1ZM12.025 12q0-.45-.312-.763-.313-.312-.763-.312t-.762.312q-.313.313-.313.763t.313.762q.312.313.762.313t.763-.313q.312-.312.312-.762ZM6.85 19.1h6.1V4.85h-6.1Z"/></svg>

<svg xmlns="http://www.w3.org/2000/svg" height="24" width="24"><path d="M2.65 21.25V19.1H4.7V2.7H15.1V3.7H19.3V19.1H21.35V21.25H17.15V5.85H15.1V21.25ZM6.85 4.85V19.1ZM12.025 12Q12.025 11.55 11.713 11.237Q11.4 10.925 10.95 10.925Q10.5 10.925 10.188 11.237Q9.875 11.55 9.875 12Q9.875 12.45 10.188 12.762Q10.5 13.075 10.95 13.075Q11.4 13.075 11.713 12.762Q12.025 12.45 12.025 12ZM6.85 19.1H12.95V4.85H6.85Z"/></svg>
